icons/money-pound-box-fill.svg

<svg xmlns="http://www.w3.org/2000/svg" width="24" height="24" fill="none"><g clip-path="url(#a)"><g><path fill="#121212" d="M3 3H21C21.2652 3 21.5196 3.10536 21.7071 3.29289C21.8946 3.48043 22 3.73478 22 4V20C22 20.2652 21.8946 20.5196 21.7071 20.7071C21.5196 20.8946 21.2652 21 21 21H3C2.73478 21 2.48043 20.8946 2.29289 20.7071C2.10536 20.5196 2 20.2652 2 20V4C2 3.73478 2.10536 3.48043 2.29289 3.29289C2.48043 3.10536 2.73478 3 3 3ZM9 13V15H8V17H16V15H11V13H14V11H11V10C10.9998 9.67611 11.1044 9.36084 11.2982 9.10133C11.492 8.84182 11.7646 8.65201 12.0752 8.56029C12.3858 8.46856 12.7178 8.47984 13.0215 8.59245C13.3252 8.70505 13.5843 8.91293 13.76 9.185L15.746 8.689C15.4412 7.9363 14.8842 7.31297 14.1703 6.92576C13.4565 6.53854 12.6303 6.41152 11.8331 6.56644C11.0359 6.72136 10.3174 7.14858 9.80059 7.77496C9.28374 8.40134 9.00073 9.18792 9 10V11H8V13H9Z"/></g></g><defs><clipPath id="a"><rect width="24" height="24" fill="white"/></clipPath></defs></svg>

<svg width="24" height="24" fill="none" xmlns="http://www.w3.org/2000/svg"><g clip-path="url(#a)"><path d="M3 3h18a1 1 0 0 1 1 1v16a1 1 0 0 1-1 1H3a1 1 0 0 1-1-1V4a1 1 0 0 1 1-1Zm6 10v2H8v2h8v-2h-5v-2h3v-2h-3v-1a1.5 1.5 0 0 1 2.76-.815l1.986-.496A3.5 3.5 0 0 0 9 10v1H8v2h1Z" /></g><defs><clipPath id="a"><path fill="#fff" d="M0 0h24v24H0z"/></clipPath></defs></svg>
